X: 11956
T: Enchanted Lady, The
R: reel
M: 4/4
K: Dmajor
|:A3G FAdB|AGFD EA,A,2|A3G FAdB|ABde fdd2:|
f2df efdf|afef edBA|f2df efdA|(3Bcd AG FDD2|
f2df efdf|afef edBA|A3B dfbf|afeg fdd2||

